X: 79
T: Neun D\"orfer
R: zwiefacher
M: 32/44
L: 1/8
K: G
|:"G"[d3B3] [dB] [d2B2] | [d2B2] [B2G2] [G2D2] \
| "D7"[F2D2] [A2F2] | [d2c2] [c2F2] | [F2D2] [A2F2] \
|  [d3F3] [dF] [d2F2] | [d2F2] [c2F2] [A2F2] \
| "G"G2 [B2G2] | [d2B2] [B2G2] | G2 [B2G2] |
| "G"[d3B3] [dB] [d2B2] | [d2B2] [B2G2] [G2D2] \
| "D7"[F2D2] [A2F2] | [d2c2] [c2F2] | [F2D2] [A2F2] \
|  [d3F3] [dF] [d2F2] | [d2F2] [c2F2] [A2F2] \
| "G"G2 [B2G2] | "D7"[d2F2] [F2D2] | "G"[G2] z2 z2 :|
%%sep 2 1 500
